; generated by PrusaSlicer 2.9.2 on 2025-06-06 at 08:46:51 UTC

; 

; external perimeters extrusion width = 0.45mm
; perimeters extrusion width = 0.45mm
; infill extrusion width = 0.45mm
; solid infill extrusion width = 0.45mm
; top infill extrusion width = 0.40mm
; first layer extrusion width = 0.42mm

M190 S30 ; set bed temperature and wait for it to be reached
G10 S200 P0 ; set temperature
;TYPE:Custom
G28 ; home all axes
; generated by PrusaSlicer 2.9.2 on 2025-06-06 at 08:46:51 UTC

; 

; external perimeters extrusion width = 0.45mm
; perimeters extrusion width = 0.45mm
; infill extrusion width = 0.45mm
; solid infill extrusion width = 0.45mm
; top infill extrusion width = 0.40mm
; first layer extrusion width = 0.42mm

M190 S30 ; set bed temperature and wait for it to be reached
G10 S200 P0 ; set temperature
;TYPE:Custom
G28 ; home all axes
G1 Z5 F5000 ; lift nozzle
G10 S200 P0 ; set temperature
M116 ; wait for temperature to be reached
G21 ; set units to millimeters
G90 ; use absolute coordinates
M82 ; use absolute distances for extrusion
G92 E0
; Filament gcode
M107
;LAYER_CHANGE
;Z:0.35
;HEIGHT:0.35
G1 E-2 F2400
G92 E0
G1 Z.35 F7800
G1 X92.86 Y79.459
G1 E2 F2400
;TYPE:Skirt/Brim
;WIDTH:0.42
G1 F1800
G1 X94.564 Y78.047 E2.11106
G1 X96.656 Y77.325 E2.22213
G1 X98.869 Y77.389 E2.33324
G1 X101.556 Y78.699 E2.48326
G1 X120.708 Y94.768 E3.73792
G1 X122.12 Y96.472 E3.84898
G1 X122.842 Y98.564 E3.96005
G1 X122.778 Y100.776 E4.07111
G1 X121.468 Y103.464 E4.22118
G1 X106.269 Y121.578 E5.40787
G1 X104.566 Y122.991 E5.51892
G1 X102.473 Y123.712 E5.63002
G1 X100.261 Y123.649 E5.74108
G1 X97.573 Y122.339 E5.89115
G1 X78.422 Y106.269 E7.1458
G1 X77.009 Y104.566 E7.25685
G1 X76.288 Y102.473 E7.36795
G1 X76.351 Y100.261 E7.47901
G1 X77.661 Y97.573 E7.62908
G1 X92.822 Y79.505 E8.81277
G1 E6.81277 F2400
G92 E0
G92 E0
G1 X115.472 Y99.608 F7800
G1 E2 F2400
;TYPE:Perimeter
;WIDTH:0.42
G1 F1800
G1 X108.451 Y107.975 E2.54816
G1 X101.43 Y116.343 E3.09635
G1 X83.657 Y101.43 E4.2607
G1 X97.7 Y84.695 E5.35708
G1 X115.426 Y99.569 E6.51837
G1 X115.958 Y99.565 F7800
G1 F1800
G1 X108.715 Y108.197 E7.08387
G1 X101.472 Y116.829 E7.64937
G1 X83.171 Y101.472 E8.84834
G1 X97.657 Y84.209 E9.97931
G1 X115.912 Y99.526 E11.17522
G1 X116.444 Y99.523 F7800
;TYPE:External perimeter
G1 F1800
G1 X108.979 Y108.419 E11.75804
G1 X101.515 Y117.315 E12.34082
G1 X82.685 Y101.515 E13.57442
G1 X97.615 Y83.723 E14.74005
G1 X116.398 Y99.484 E15.97059
G1 X116.189 Y99.825 F7800
G1 X115.003 Y100.006
;TYPE:Solid infill
;WIDTH:0.422145
G1 F1800
G1 X112.174 Y97.178 E16.17259
G1 X109.124 Y94.618 E16.37367
G1 X114.669 Y100.163 E16.76967
G1 X114.445 Y100.43 E16.78727
G1 X106.074 Y92.059 E17.38508
G1 X103.024 Y89.499 E17.58616
G1 X114.221 Y100.697 E18.38583
G1 X113.997 Y100.964 E18.40343
G1 X99.973 Y86.94 E19.40495
G1 X97.732 Y85.059 E19.5527
G1 X97.672 Y85.13 E19.55739
G1 X113.773 Y101.23 E20.70721
G1 X113.549 Y101.497 E20.72481
G1 X97.448 Y85.397 E21.87463
G1 X97.224 Y85.663 E21.89219
G1 X113.325 Y101.764 E23.04204
G1 X113.101 Y102.031 E23.05964
G1 X97.001 Y85.93 E24.20946
G1 X96.777 Y86.197 E24.22706
G1 X112.877 Y102.298 E25.37688
G1 X112.653 Y102.565 E25.39448
G1 X96.553 Y86.464 E26.5443
G1 X96.329 Y86.731 E26.5619
G1 X112.429 Y102.832 E27.71172
G1 X112.205 Y103.098 E27.72928
G1 X96.105 Y86.998 E28.87906
G1 X95.881 Y87.265 E28.89666
G1 X111.982 Y103.365 E30.04648
G1 X111.758 Y103.632 E30.06408
G1 X95.657 Y87.531 E31.21393
G1 X95.433 Y87.798 E31.23153
G1 X111.534 Y103.899 E32.38138
G1 X111.31 Y104.166 E32.39898
G1 X95.209 Y88.065 E33.54883
G1 X94.985 Y88.332 E33.56643
G1 X111.086 Y104.433 E34.71628
G1 X110.862 Y104.7 E34.73388
G1 X94.761 Y88.599 E35.88373
G1 X94.537 Y88.866 E35.90133
G1 X110.638 Y104.966 E37.05115
G1 X110.414 Y105.233 E37.06875
G1 X94.313 Y89.133 E38.21857
G1 X94.09 Y89.399 E38.2361
G1 X110.19 Y105.5 E39.38592
G1 X109.966 Y105.767 E39.40352
G1 X93.866 Y89.666 E40.55334
G1 X93.642 Y89.933 E40.57094
G1 X109.742 Y106.034 E41.72076
G1 X109.518 Y106.301 E41.73836
G1 X93.418 Y90.2 E42.88818
G1 X93.194 Y90.467 E42.90578
G1 X109.295 Y106.568 E44.05563
G1 X109.071 Y106.834 E44.07319
G1 X92.97 Y90.734 E45.22301
G1 X92.746 Y91.001 E45.24061
G1 X108.847 Y107.101 E46.39043
G1 X108.623 Y107.368 E46.40803
G1 X92.522 Y91.267 E47.55788
G1 X92.298 Y91.534 E47.57548
G1 X108.399 Y107.635 E48.72533
G1 X108.175 Y107.902 E48.74293
G1 X92.074 Y91.801 E49.89278
G1 X91.85 Y92.068 E49.91038
G1 X107.951 Y108.169 E51.06023
G1 X107.727 Y108.436 E51.07783
G1 X91.626 Y92.335 E52.22768
G1 X91.402 Y92.602 E52.24528
G1 X107.503 Y108.702 E53.3951
G1 X107.279 Y108.969 E53.4127
G1 X91.179 Y92.869 E54.56248
G1 X90.955 Y93.136 E54.58008
G1 X107.055 Y109.236 E55.72986
G1 X106.831 Y109.503 E55.74746
G1 X90.731 Y93.402 E56.89728
G1 X90.507 Y93.669 E56.91488
G1 X106.607 Y109.77 E58.0647
G1 X106.384 Y110.037 E58.08227
G1 X90.283 Y93.936 E59.23212
G1 X90.059 Y94.203 E59.24972
G1 X106.16 Y110.304 E60.39957
G1 X105.936 Y110.57 E60.41713
G1 X89.835 Y94.47 E61.56695
G1 X89.611 Y94.737 E61.58455
G1 X105.712 Y110.837 E62.73437
G1 X105.488 Y111.104 E62.75197
G1 X89.387 Y95.004 E63.90179
G1 X89.163 Y95.27 E63.91935
G1 X105.264 Y111.371 E65.0692
G1 X105.04 Y111.638 E65.0868
G1 X88.939 Y95.537 E66.23665
G1 X88.715 Y95.804 E66.25425
G1 X104.816 Y111.905 E67.4041
G1 X104.592 Y112.172 E67.4217
G1 X88.492 Y96.071 E68.57152
G1 X88.268 Y96.338 E68.58912
G1 X104.368 Y112.438 E69.7389
G1 X104.144 Y112.705 E69.7565
G1 X88.044 Y96.605 E70.90628
G1 X87.82 Y96.872 E70.92388
G1 X103.92 Y112.972 E72.07366
G1 X103.696 Y113.239 E72.09126
G1 X87.596 Y97.138 E73.24108
G1 X87.372 Y97.405 E73.25868
G1 X103.473 Y113.506 E74.40853
G1 X103.249 Y113.773 E74.42613
G1 X87.148 Y97.672 E75.57598
G1 X86.924 Y97.939 E75.59358
G1 X103.025 Y114.04 E76.74343
G1 X102.801 Y114.306 E76.76099
G1 X86.7 Y98.206 E77.91081
G1 X86.476 Y98.473 E77.92841
G1 X102.577 Y114.573 E79.07823
G1 X102.353 Y114.84 E79.09583
G1 X86.252 Y98.74 E80.24565
G1 X86.028 Y99.006 E80.26321
G1 X102.129 Y115.107 E81.41306
G1 X101.905 Y115.374 E81.43066
G1 X85.804 Y99.273 E82.58051
G1 X85.581 Y99.54 E82.59808
G1 X101.681 Y115.641 E83.7479
G1 X101.457 Y115.908 E83.7655
G1 X85.357 Y99.807 E84.91532
G1 X85.133 Y100.074 E84.93292
G1 X99.156 Y114.097 E85.93437
G1 X96.106 Y111.538 E86.13542
G1 X84.909 Y100.341 E86.93505
G1 X84.685 Y100.608 E86.95265
G1 X93.056 Y108.978 E87.55043
G1 X90.005 Y106.419 E87.75152
G1 X84.461 Y100.874 E88.14748
G1 X84.237 Y101.141 E88.16508
G1 X88.214 Y105.119 E88.44913
;LAYER_CHANGE
;Z:0.65
;HEIGHT:0.3
G1 E86.44913 F2400
G92 E0
G1 Z.65 F7800
G1 X115.336 Y99.619
G1 E2 F2400
;TYPE:Perimeter
;WIDTH:0.45
G1 F3600
G1 X108.377 Y107.913 E2.52073
G1 X101.418 Y116.207 E3.04146
G1 X83.793 Y101.418 E4.14805
G1 X97.712 Y84.83 E5.18954
G1 X115.29 Y99.581 E6.29322
G1 X115.88 Y99.572 F7800
G1 F3600
G1 X108.673 Y108.161 E6.83248
G1 X101.465 Y116.75 E7.37178
G1 X83.25 Y101.465 E8.51544
G1 X97.664 Y84.287 E9.59397
G1 X115.834 Y99.533 E10.73477
G1 X116.423 Y99.524 F7800
;TYPE:External perimeter
G1 F1800
G1 X108.968 Y108.409 E11.29261
G1 X101.513 Y117.293 E11.85041
G1 X82.707 Y101.513 E13.03115
G1 X97.617 Y83.744 E14.14679
G1 X116.377 Y99.486 E15.32466
G1 X116.168 Y99.827 F7800
G1 E13.32466 F2400
G92 E0
G1 X97.081 Y85.81 F7800
G1 E2 F2400
;TYPE:Solid infill
;WIDTH:0.404381
G1 F1200
G1 X97.735 Y85.097 E2.04103
;WIDTH:0.45
G1 X97.883 Y85.352 E2.05521
G1 X96.444 Y86.791 E2.15309
G1 X96.194 Y87.064 E2.17089
;WIDTH:0.417727
G1 X94.237 Y89.2 E2.29856
G1 E.29856 F2400
G92 E0
G1 X91.393 Y92.589 F7800
G1 E2 F2400
G1 F1200
G1 X93.35 Y90.453 E2.12767
;WIDTH:0.45
G1 X93.6 Y90.181 E2.14544
G1 X98.18 Y85.601 E2.45697
G1 X98.476 Y85.85 E2.47557
G1 X90.756 Y93.57 E3.00067
G1 X90.506 Y93.843 E3.01847
;WIDTH:0.417727
G1 X88.549 Y95.978 E3.14611
G1 E1.14611 F2400
G92 E0
G1 X85.705 Y99.368 F7800
G1 E2 F2400
G1 F1200
G1 X87.662 Y97.232 E2.12767
;WIDTH:0.45
G1 X87.912 Y96.959 E2.14547
G1 X98.773 Y86.098 E2.88422
G1 X99.069 Y86.347 E2.90282
G1 X85.068 Y100.349 E3.85518
G1 X84.818 Y100.621 E3.87295
;WIDTH:0.417727
G1 X84.114 Y101.39 E3.9189
;WIDTH:0.45
G1 X84.407 Y101.555 E3.93507
G1 X99.366 Y86.596 E4.95256
G1 X99.662 Y86.845 E4.97116
G1 X84.703 Y101.804 E5.98865
G1 X85 Y102.053 E6.00729
G1 X99.959 Y87.094 E7.02478
G1 X100.255 Y87.343 E7.04338
G1 X85.296 Y102.302 E8.06087
G1 X85.593 Y102.55 E8.07948
G1 X100.552 Y87.591 E9.09697
G1 X100.849 Y87.84 E9.11561
G1 X85.889 Y102.799 E10.13314
G1 X86.186 Y103.048 E10.15178
G1 X101.145 Y88.089 E11.16927
G1 X101.442 Y88.338 E11.18791
G1 X86.482 Y103.297 E12.20544
G1 X86.779 Y103.546 E12.22408
G1 X101.738 Y88.587 E13.24157
G1 X102.035 Y88.835 E13.26018
G1 X87.075 Y103.795 E14.27774
G1 X87.372 Y104.043 E14.29635
G1 X102.331 Y89.084 E15.31384
G1 X102.628 Y89.333 E15.33248
G1 X87.669 Y104.292 E16.34997
G1 X87.965 Y104.541 E16.36857
G1 X102.924 Y89.582 E17.38606
G1 X103.221 Y89.831 E17.4047
G1 X88.262 Y104.79 E18.42219
G1 X88.558 Y105.039 E18.44079
G1 X103.517 Y90.08 E19.45828
G1 X103.814 Y90.328 E19.47689
G1 X88.855 Y105.287 E20.49438
G1 X89.151 Y105.536 E20.51298
G1 X104.11 Y90.577 E21.53047
G1 X104.407 Y90.826 E21.54911
G1 X89.448 Y105.785 E22.5666
G1 X89.744 Y106.034 E22.5852
G1 X104.703 Y91.075 E23.60269
G1 X105 Y91.324 E23.62133
G1 X90.041 Y106.283 E24.63882
G1 X90.337 Y106.532 E24.65742
G1 X105.296 Y91.572 E25.67495
G1 X105.593 Y91.821 E25.69359
G1 X90.634 Y106.78 E26.71108
G1 X90.93 Y107.029 E26.72968
G1 X105.89 Y92.07 E27.74721
G1 X106.186 Y92.319 E27.76581
G1 X91.227 Y107.278 E28.7833
G1 X91.523 Y107.527 E28.8019
G1 X106.483 Y92.568 E29.81943
G1 X106.779 Y92.817 E29.83803
G1 X91.82 Y107.776 E30.85552
G1 X92.116 Y108.024 E30.87409
G1 X107.076 Y93.065 E31.89162
G1 X107.372 Y93.314 E31.91022
G1 X92.413 Y108.273 E32.92771
G1 X92.71 Y108.522 E32.94635
G1 X107.669 Y93.563 E33.96384
G1 X107.965 Y93.812 E33.98244
G1 X93.006 Y108.771 E34.99993
G1 X93.303 Y109.02 E35.01857
G1 X108.262 Y94.061 E36.03606
G1 X108.558 Y94.309 E36.05463
G1 X93.599 Y109.269 E37.07216
G1 X93.896 Y109.517 E37.09077
G1 X108.855 Y94.558 E38.10826
G1 X109.151 Y94.807 E38.12686
G1 X94.192 Y109.766 E39.14435
G1 X94.489 Y110.015 E39.16299
G1 X109.448 Y95.056 E40.18048
G1 X109.744 Y95.305 E40.19908
G1 X94.785 Y110.264 E41.21657
G1 X95.082 Y110.513 E41.23521
G1 X110.041 Y95.554 E42.2527
G1 X110.337 Y95.802 E42.27127
G1 X95.378 Y110.761 E43.28876
G1 X95.675 Y111.01 E43.3074
G1 X110.634 Y96.051 E44.32489
G1 X110.931 Y96.3 E44.34353
G1 X95.971 Y111.259 E45.36106
G1 X96.268 Y111.508 E45.3797
G1 X111.227 Y96.549 E46.39719
G1 X111.524 Y96.798 E46.41583
G1 X96.564 Y111.757 E47.43336
G1 X96.861 Y112.006 E47.452
G1 X111.82 Y97.046 E48.46953
G1 X112.117 Y97.295 E48.48817
G1 X97.157 Y112.254 E49.5057
G1 X97.454 Y112.503 E49.52434
G1 X112.413 Y97.544 E50.54183
G1 X112.71 Y97.793 E50.56047
G1 X97.751 Y112.752 E51.57796
G1 X98.047 Y113.001 E51.59656
G1 X113.006 Y98.042 E52.61405
G1 X113.303 Y98.291 E52.63269
G1 X98.344 Y113.25 E53.65018
G1 X98.64 Y113.498 E53.66875
G1 X113.599 Y98.539 E54.68624
G1 X113.896 Y98.788 E54.70488
G1 X98.937 Y113.747 E55.72237
G1 X99.233 Y113.996 E55.74097
G1 X114.192 Y99.037 E56.75846
G1 X114.489 Y99.286 E56.7771
G1 X99.53 Y114.245 E57.79459
G1 X99.826 Y114.494 E57.81319
G1 X114.785 Y99.535 E58.83068
G1 X115.076 Y99.642 E58.84559
;WIDTH:0.417725
G1 X113.712 Y101.131 E58.93458
;WIDTH:0.45
G1 X113.462 Y101.403 E58.95235
G1 X100.123 Y114.743 E59.85969
G1 X100.419 Y114.991 E59.87826
G1 X110.618 Y104.793 E60.57195
G1 X110.868 Y104.52 E60.58975
;WIDTH:0.417725
G1 X112.825 Y102.384 E60.71742
G1 E58.71742 F2400
G92 E0
G1 X109.981 Y105.774 F7800
G1 E2 F2400
G1 F1200
G1 X108.024 Y107.909 E2.12764
;WIDTH:0.45
G1 X107.774 Y108.182 E2.14544
G1 X100.716 Y115.24 E2.62552
G1 X101.012 Y115.489 E2.64412
G1 X104.93 Y111.571 E2.91062
G1 X105.18 Y111.299 E2.92839
;WIDTH:0.417725
G1 X107.137 Y109.163 E3.05606
G1 E1.05606 F2400
G92 E0
G1 X104.293 Y112.552 F7800
G1 E2 F2400
;WIDTH:0.450122
G1 F1200
G1 X103.321 Y113.613 E2.06923
;WIDTH:0.495863
G1 X102.349 Y114.674 E2.14667
;WIDTH:0.541605
G1 X101.377 Y115.735 E2.23232
;LAYER_CHANGE
;Z:0.95
;HEIGHT:0.3
G1 E.23232 F2400
G92 E0
G1 Z.95 F7800
G1 X115.336 Y99.619
G1 E2 F2400
;TYPE:Perimeter
;WIDTH:0.45
G1 F3600
G1 X108.377 Y107.913 E2.52073
G1 X101.418 Y116.207 E3.04146
G1 X83.793 Y101.418 E4.14805
G1 X97.712 Y84.83 E5.18954
G1 X115.29 Y99.581 E6.29322
G1 X115.88 Y99.572 F7800
G1 F3600
G1 X108.673 Y108.161 E6.83248
G1 X101.465 Y116.75 E7.37178
G1 X83.25 Y101.465 E8.51544
G1 X97.664 Y84.287 E9.59397
G1 X115.834 Y99.533 E10.73477
G1 X116.423 Y99.524 F7800
;TYPE:External perimeter
G1 F1800
G1 X108.968 Y108.409 E11.29261
G1 X101.513 Y117.293 E11.85041
G1 X82.707 Y101.513 E13.03115
G1 X97.617 Y83.744 E14.14679
G1 X116.377 Y99.486 E15.32466
G1 X116.168 Y99.827 F7800
G1 E13.32466 F2400
G92 E0
G1 X84.773 Y102.048 F7800
G1 E2 F2400
;TYPE:Solid infill
;WIDTH:0.404381
G1 F1200
G1 X84.059 Y101.395 E2.04103
;WIDTH:0.45
G1 X84.315 Y101.246 E2.05528
G1 X85.754 Y102.686 E2.15319
G1 X86.027 Y102.936 E2.17099
;WIDTH:0.417727
G1 X88.162 Y104.892 E2.2986
G1 E.2986 F2400
G92 E0
G1 X91.552 Y107.736 F7800
G1 E2 F2400
G1 F1200
G1 X89.416 Y105.78 E2.12764
;WIDTH:0.45
G1 X89.143 Y105.53 E2.14544
G1 X84.563 Y100.95 E2.45697
G1 X84.812 Y100.653 E2.47561
G1 X92.533 Y108.374 E3.00078
G1 X92.805 Y108.624 E3.01855
;WIDTH:0.417729
G1 X94.941 Y110.58 E3.14619
G1 E1.14619 F2400
G92 E0
G1 X98.33 Y113.424 F7800
G1 E2 F2400
G1 F1200
G1 X96.195 Y111.468 E2.12761
;WIDTH:0.45
G1 X95.922 Y111.218 E2.14541
G1 X85.061 Y100.357 E2.88416
G1 X85.31 Y100.06 E2.9028
G1 X99.311 Y114.062 E3.85516
G1 X99.584 Y114.312 E3.87296
;WIDTH:0.417729
G1 X101.397 Y115.973 E3.98132
;WIDTH:0.45
G1 X101.479 Y115.684 E3.99577
G1 X85.559 Y99.764 E5.07863
G1 X85.808 Y99.467 E5.09727
G1 X101.728 Y115.388 E6.18016
G1 X101.977 Y115.091 E6.1988
G1 X86.056 Y99.171 E7.28169
G1 X86.305 Y98.874 E7.30033
G1 X102.226 Y114.794 E8.38322
G1 X102.474 Y114.498 E8.40179
G1 X86.554 Y98.578 E9.48465
G1 X86.803 Y98.281 E9.50329
G1 X102.723 Y114.201 E10.58615
G1 X102.972 Y113.905 E10.60475
G1 X87.052 Y97.985 E11.68761
G1 X87.3 Y97.688 E11.70622
G1 X103.221 Y113.608 E12.78911
G1 X103.47 Y113.312 E12.80771
G1 X87.549 Y97.391 E13.89064
G1 X87.798 Y97.095 E13.90924
G1 X103.718 Y113.015 E14.9921
G1 X103.967 Y112.719 E15.0107
G1 X88.047 Y96.798 E16.09359
G1 X88.296 Y96.502 E16.11219
G1 X104.216 Y112.422 E17.19505
G1 X104.465 Y112.126 E17.21365
G1 X88.545 Y96.205 E18.29654
G1 X88.793 Y95.909 E18.31511
G1 X104.714 Y111.829 E19.398
G1 X104.963 Y111.533 E19.4166
G1 X89.042 Y95.612 E20.49953
G1 X89.291 Y95.316 E20.51813
G1 X105.211 Y111.236 E21.60099
G1 X105.46 Y110.94 E21.61959
G1 X89.54 Y95.019 E22.70248
G1 X89.789 Y94.723 E22.72108
G1 X105.709 Y110.643 E23.80394
G1 X105.958 Y110.347 E23.82254
G1 X90.037 Y94.426 E24.90547
G1 X90.286 Y94.13 E24.92407
G1 X106.207 Y110.05 E26.00696
G1 X106.455 Y109.753 E26.02557
G1 X90.535 Y93.833 E27.10843
G1 X90.784 Y93.537 E27.12703
G1 X106.704 Y109.457 E28.20989
G1 X106.953 Y109.16 E28.22853
G1 X91.033 Y93.24 E29.31139
G1 X91.282 Y92.944 E29.32999
G1 X107.202 Y108.864 E30.41285
G1 X107.451 Y108.567 E30.43149
G1 X91.53 Y92.647 E31.51438
G1 X91.779 Y92.35 E31.53302
G1 X107.7 Y108.271 E32.61595
G1 X107.948 Y107.974 E32.63456
G1 X92.028 Y92.054 E33.71742
G1 X92.277 Y91.757 E33.73606
G1 X108.197 Y107.678 E34.81895
G1 X108.446 Y107.381 E34.83759
G1 X92.526 Y91.461 E35.92045
G1 X92.774 Y91.164 E35.93906
G1 X108.695 Y107.085 E37.02199
G1 X108.944 Y106.788 E37.04063
G1 X93.023 Y90.868 E38.12352
G1 X93.272 Y90.571 E38.14216
G1 X109.192 Y106.492 E39.22505
G1 X109.441 Y106.195 E39.24369
G1 X93.521 Y90.275 E40.32655
G1 X93.77 Y89.978 E40.34519
G1 X109.69 Y105.899 E41.42808
G1 X109.939 Y105.602 E41.44672
G1 X94.019 Y89.682 E42.52958
G1 X94.267 Y89.385 E42.54819
G1 X110.188 Y105.306 E43.63112
G1 X110.437 Y105.009 E43.64976
G1 X94.516 Y89.089 E44.73265
G1 X94.765 Y88.792 E44.75129
G1 X110.685 Y104.712 E45.83415
G1 X110.934 Y104.416 E45.85275
G1 X95.014 Y88.496 E46.93561
G1 X95.263 Y88.199 E46.95425
G1 X111.183 Y104.119 E48.03711
G1 X111.432 Y103.823 E48.05571
G1 X95.511 Y87.903 E49.1386
