; generated by PrusaSlicer 2.9.2 on 2025-06-06 at 08:46:52 UTC

; 

; external perimeters extrusion width = 0.45mm
; perimeters extrusion width = 0.45mm
; infill extrusion width = 0.45mm
; solid infill extrusion width = 0.45mm
; top infill extrusion width = 0.40mm
; first layer extrusion width = 0.42mm

M190 S30 ; set bed temperature and wait for it to be reached
G10 S200 P0 ; set temperature
;TYPE:Custom
G28 ; home all axes
G1 Z5 F5000 ; lift nozzle
G10 S200 P0 ; set temperature
M116 ; wait for temperature to be reached
G21 ; set units to millimeters
G90 ; use absolute coordinates
M82 ; use absolute distances for extrusion
G92 E0
; Filament gcode
M107
;LAYER_CHANGE
;Z:0.35
;HEIGHT:0.35
G1 E-2 F2400
G92 E0
G1 Z.35 F7800
G1 X92.433 Y79.969
G1 E2 F2400
;TYPE:Skirt/Brim
;WIDTH:0.42
G1 F1800
G1 X94.137 Y78.556 E2.11109
G1 X96.229 Y77.835 E2.22214
G1 X98.441 Y77.898 E2.3332
G1 X101.129 Y79.208 E2.48327
G1 X120.28 Y95.278 E3.73792
G1 X121.693 Y96.981 E3.84897
G1 X122.414 Y99.073 E3.96002
G1 X122.351 Y101.286 E4.07113
G1 X121.041 Y103.973 E4.22115
G1 X101.095 Y127.744 E5.77845
G1 X99.392 Y129.157 E5.8895
G1 X97.299 Y129.878 E6.0006
G1 X95.087 Y129.815 E6.11166
G1 X92.399 Y128.505 E6.26173
G1 X73.248 Y112.435 E7.51638
G1 X71.835 Y110.732 E7.62743
G1 X71.114 Y108.639 E7.73853
G1 X71.177 Y106.427 E7.84959
G1 X72.487 Y103.739 E7.99966
G1 X92.395 Y80.015 E9.55393
G1 E7.55393 F2400
G92 E0
G92 E0
G1 X97.08 Y85.434 F7800
G1 E2 F2400
;TYPE:Perimeter
;WIDTH:0.42
G1 F1800
G1 X97.272 Y85.204 E2.01504
G1 X106.159 Y92.66 E2.59722
G1 X115.045 Y100.117 E3.17939
G1 X96.256 Y122.509 E4.64635
G1 X78.483 Y107.596 E5.8107
G1 X97.041 Y85.48 E7.2596
G1 X97.128 Y84.839 F7800
G1 F1800
G1 X97.23 Y84.718 E7.26754
G1 X106.38 Y92.396 E7.86699
G1 X115.531 Y100.074 E8.46648
G1 X96.298 Y122.995 E9.9681
G1 X77.997 Y107.638 E11.16707
G1 X97.089 Y84.885 E12.65769
G1 X97.172 Y84.251 F7800
;TYPE:External perimeter
G1 F1800
G1 X97.187 Y84.232 E12.6589
G1 X106.602 Y92.132 E13.2757
G1 X116.017 Y100.032 E13.8925
G1 X96.341 Y123.481 E15.42871
G1 X77.512 Y107.681 E16.66227
G1 X97.133 Y84.297 E18.19421
G1 X97.489 Y84.48 F7800
G1 E16.19421 F2400
G92 E0
G1 X110.478 Y96.419 F7800
G1 E2 F2400
;TYPE:Solid infill
;WIDTH:0.422916
G1 F1800
G1 X114.464 Y100.406 E2.28533
G1 X114.24 Y100.674 E2.30301
G1 X108.68 Y95.113 E2.701
G1 X105.623 Y92.548 E2.90296
G1 X114.016 Y100.941 E3.50368
G1 X113.791 Y101.209 E3.52139
G1 X102.566 Y89.983 E4.32484
G1 X99.509 Y87.418 E4.5268
G1 X113.567 Y101.476 E5.53298
G1 X113.342 Y101.743 E5.55065
G1 X97.242 Y85.643 E6.70298
G1 X97.017 Y85.91 E6.72065
G1 X113.118 Y102.011 E7.87306
G1 X112.894 Y102.278 E7.8907
G1 X96.793 Y86.178 E9.04307
G1 X96.568 Y86.445 E9.06074
G1 X112.669 Y102.546 E10.21315
G1 X112.445 Y102.813 E10.23079
G1 X96.344 Y86.713 E11.38316
G1 X96.12 Y86.98 E11.4008
G1 X112.22 Y103.081 E12.55317
G1 X111.996 Y103.348 E12.57081
G1 X95.895 Y87.248 E13.72318
G1 X95.671 Y87.515 E13.74082
G1 X111.771 Y103.616 E14.89319
G1 X111.547 Y103.883 E14.91083
G1 X95.446 Y87.782 E16.06324
G1 X95.222 Y88.05 E16.08092
G1 X111.323 Y104.151 E17.23333
G1 X111.098 Y104.418 E17.251
G1 X94.998 Y88.317 E18.40337
G1 X94.773 Y88.585 E18.42108
G1 X110.874 Y104.685 E19.57345
G1 X110.649 Y104.953 E19.59116
G1 X94.549 Y88.852 E20.74353
G1 X94.324 Y89.12 E20.76124
G1 X110.425 Y105.22 E21.91361
G1 X110.201 Y105.488 E21.93129
G1 X94.1 Y89.387 E23.0837
G1 X93.875 Y89.655 E23.10141
G1 X109.976 Y105.755 E24.25378
G1 X109.752 Y106.023 E24.27146
G1 X93.651 Y89.922 E25.42387
G1 X93.427 Y90.19 E25.44155
G1 X109.527 Y106.29 E26.59388
G1 X109.303 Y106.558 E26.61156
G1 X93.202 Y90.457 E27.76397
G1 X92.978 Y90.724 E27.78161
G1 X109.078 Y106.825 E28.93398
G1 X108.854 Y107.093 E28.95166
G1 X92.753 Y90.992 E30.10407
G1 X92.529 Y91.259 E30.12171
G1 X108.63 Y107.36 E31.27412
G1 X108.405 Y107.627 E31.29179
G1 X92.305 Y91.527 E32.44412
G1 X92.08 Y91.794 E32.46179
G1 X108.181 Y107.895 E33.6142
G1 X107.956 Y108.162 E33.63187
G1 X91.856 Y92.062 E34.7842
G1 X91.631 Y92.329 E34.80187
G1 X107.732 Y108.43 E35.95428
G1 X107.507 Y108.697 E35.97195
G1 X91.407 Y92.597 E37.12428
G1 X91.182 Y92.864 E37.14195
G1 X107.283 Y108.965 E38.29436
G1 X107.059 Y109.232 E38.312
G1 X90.958 Y93.131 E39.46441
G1 X90.734 Y93.399 E39.48209
G1 X106.834 Y109.5 E40.63446
G1 X106.61 Y109.767 E40.6521
G1 X90.509 Y93.666 E41.80451
G1 X90.285 Y93.934 E41.82219
G1 X106.385 Y110.035 E42.97456
G1 X106.161 Y110.302 E42.9922
G1 X90.06 Y94.201 E44.14461
G1 X89.836 Y94.469 E44.16229
G1 X105.937 Y110.569 E45.31466
G1 X105.712 Y110.837 E45.33237
G1 X89.611 Y94.736 E46.48478
G1 X89.387 Y95.004 E46.50246
G1 X105.488 Y111.104 E47.65483
G1 X105.263 Y111.372 E47.67254
G1 X89.163 Y95.271 E48.82491
G1 X88.938 Y95.539 E48.84262
G1 X105.039 Y111.639 E49.99499
G1 X104.814 Y111.907 E50.0127
G1 X88.714 Y95.806 E51.16507
G1 X88.489 Y96.073 E51.18274
G1 X104.59 Y112.174 E52.33515
G1 X104.366 Y112.442 E52.35283
G1 X88.265 Y96.341 E53.50524
G1 X88.041 Y96.608 E53.52288
G1 X104.141 Y112.709 E54.67525
G1 X103.917 Y112.976 E54.69289
G1 X87.816 Y96.876 E55.84526
G1 X87.592 Y97.143 E55.8629
G1 X103.692 Y113.244 E57.01527
G1 X103.468 Y113.511 E57.03291
G1 X87.367 Y97.411 E58.18528
G1 X87.143 Y97.678 E58.20292
G1 X103.244 Y113.779 E59.35533
G1 X103.019 Y114.046 E59.373
G1 X86.918 Y97.946 E60.52537
G1 X86.694 Y98.213 E60.54301
G1 X102.795 Y114.314 E61.69542
G1 X102.57 Y114.581 E61.71309
G1 X86.47 Y98.481 E62.86542
G1 X86.245 Y98.748 E62.88309
G1 X102.346 Y114.849 E64.0355
G1 X102.121 Y115.116 E64.05317
G1 X86.021 Y99.015 E65.20554
G1 X85.796 Y99.283 E65.22325
G1 X101.897 Y115.384 E66.37566
G1 X101.673 Y115.651 E66.3933
G1 X85.572 Y99.55 E67.54571
G1 X85.348 Y99.818 E67.56339
G1 X101.448 Y115.918 E68.71572
G1 X101.224 Y116.186 E68.7334
G1 X85.123 Y100.085 E69.88581
G1 X84.899 Y100.353 E69.90349
G1 X100.999 Y116.453 E71.05582
G1 X100.775 Y116.721 E71.0735
G1 X84.674 Y100.62 E72.22591
G1 X84.45 Y100.888 E72.24359
G1 X100.551 Y116.988 E73.39596
G1 X100.326 Y117.256 E73.41367
G1 X84.225 Y101.155 E74.56608
G1 X84.001 Y101.423 E74.58376
G1 X100.102 Y117.523 E75.73613
G1 X99.877 Y117.791 E75.75384
G1 X83.777 Y101.69 E76.90621
G1 X83.552 Y101.957 E76.92388
G1 X99.653 Y118.058 E78.07629
G1 X99.428 Y118.326 E78.094
G1 X83.328 Y102.225 E79.24637
G1 X83.103 Y102.492 E79.26404
G1 X99.204 Y118.593 E80.41645
G1 X98.98 Y118.86 E80.43409
G1 X82.879 Y102.76 E81.58646
G1 X82.655 Y103.027 E81.6041
G1 X98.755 Y119.128 E82.75647
G1 X98.531 Y119.395 E82.77411
G1 X82.43 Y103.295 E83.92648
G1 X82.206 Y103.562 E83.94412
G1 X98.306 Y119.663 E85.09649
G1 X98.082 Y119.93 E85.11413
G1 X81.981 Y103.83 E86.2665
G1 X81.757 Y104.097 E86.28414
G1 X97.857 Y120.198 E87.43651
G1 X97.633 Y120.465 E87.45415
G1 X81.532 Y104.364 E88.60656
G1 X81.308 Y104.632 E88.62424
G1 X97.409 Y120.733 E89.77665
G1 X97.184 Y121 E89.79432
G1 X81.084 Y104.899 E90.94669
G1 X80.859 Y105.167 E90.9644
G1 X96.96 Y121.267 E92.11677
G1 X96.735 Y121.535 E92.13448
G1 X80.635 Y105.434 E93.28685
G1 X80.41 Y105.702 E93.30456
G1 X96.511 Y121.802 E94.45693
G1 X96.287 Y122.07 E94.47461
G1 X80.186 Y105.969 E95.62702
G1 X79.961 Y106.237 E95.64473
G1 X94.019 Y120.294 E96.65088
G1 X90.962 Y117.729 E96.85284
G1 X79.737 Y106.504 E97.65625
G1 X79.513 Y106.772 E97.67393
G1 X87.905 Y115.164 E98.27458
G1 X84.848 Y112.599 E98.47654
G1 X79.288 Y107.039 E98.87449
G1 X79.064 Y107.306 E98.89213
G1 X83.05 Y111.293 E99.17746
;LAYER_CHANGE
;Z:0.65
;HEIGHT:0.3
G1 E97.17746 F2400
G92 E0
G1 Z.65 F7800
G1 X97.336 Y85.278
G1 E2 F2400
;TYPE:Perimeter
;WIDTH:0.45
G1 F3600
G1 X106.148 Y92.673 E2.55329
G1 X114.961 Y100.067 E3.10659
G1 X96.287 Y122.321 E4.50384
G1 X78.662 Y107.533 E5.6104
G1 X97.297 Y85.324 E7.00479
G1 X97.288 Y84.735 F7800
G1 F3600
G1 X106.396 Y92.377 E7.57662
G1 X115.504 Y100.02 E8.14849
G1 X96.335 Y122.865 E9.58282
G1 X78.119 Y107.58 E10.72652
G1 X97.25 Y84.781 E12.15798
G1 X97.241 Y84.192 F7800
;TYPE:External perimeter
G1 F1800
G1 X106.644 Y92.082 E12.74835
G1 X116.047 Y99.972 E13.33872
G1 X96.382 Y123.408 E14.81016
G1 X77.576 Y107.628 E15.9909
G1 X97.202 Y84.238 E17.45944
G1 X97.543 Y84.447 F7800
G1 X96.705 Y86.258
;TYPE:Solid infill
;WIDTH:0.404381
G1 F1200
G1 X97.359 Y85.545 E17.50047
;WIDTH:0.45
G1 X97.507 Y85.8 E17.51465
G1 X96.068 Y87.239 E17.61253
G1 X95.818 Y87.512 E17.63033
;WIDTH:0.417727
G1 X93.861 Y89.647 E17.75797
G1 E15.75797 F2400
G92 E0
G1 X91.017 Y93.037 F7800
G1 E2 F2400
G1 F1200
G1 X92.974 Y90.901 E2.12767
;WIDTH:0.45
G1 X93.224 Y90.629 E2.14544
G1 X97.804 Y86.049 E2.45697
G1 X98.1 Y86.297 E2.47554
G1 X90.38 Y94.018 E3.00068
G1 X90.13 Y94.291 E3.01848
;WIDTH:0.417727
G1 X88.173 Y96.426 E3.14612
G1 E1.14612 F2400
G92 E0
G1 X85.329 Y99.815 F7800
G1 E2 F2400
G1 F1200
G1 X87.286 Y97.68 E2.12764
;WIDTH:0.45
G1 X87.536 Y97.407 E2.14544
G1 X98.397 Y86.546 E2.88419
G1 X98.694 Y86.795 E2.90283
G1 X84.692 Y100.797 E3.85523
G1 X84.442 Y101.069 E3.873
;WIDTH:0.417727
G1 X82.485 Y103.205 E4.00067
G1 E2.00067 F2400
G92 E0
G1 X79.641 Y106.594 F7800
G1 E2 F2400
G1 F1200
G1 X81.598 Y104.459 E2.12764
;WIDTH:0.45
G1 X81.848 Y104.186 E2.14544
G1 X98.99 Y87.044 E3.31142
G1 X99.287 Y87.293 E3.33006
G1 X79.077 Y107.503 E4.70472
G1 X79.373 Y107.751 E4.72329
G1 X99.583 Y87.542 E6.09792
G1 X99.88 Y87.79 E6.11653
G1 X79.67 Y108 E7.49119
G1 X79.966 Y108.249 E7.50979
G1 X100.176 Y88.039 E8.88445
G1 X100.473 Y88.288 E8.90309
G1 X80.263 Y108.498 E10.27775
G1 X80.559 Y108.747 E10.29635
G1 X100.769 Y88.537 E11.67101
G1 X101.066 Y88.786 E11.68965
G1 X80.856 Y108.996 E13.06431
G1 X81.152 Y109.244 E13.08288
G1 X101.362 Y89.034 E14.45754
G1 X101.659 Y89.283 E14.47618
G1 X81.449 Y109.493 E15.85084
G1 X81.745 Y109.742 E15.86944
G1 X101.955 Y89.532 E17.2441
G1 X102.252 Y89.781 E17.26274
G1 X82.042 Y109.991 E18.6374
G1 X82.338 Y110.24 E18.656
G1 X102.548 Y90.03 E20.03066
G1 X102.845 Y90.279 E20.0493
G1 X82.635 Y110.488 E21.42393
G1 X82.932 Y110.737 E21.44257
G1 X103.141 Y90.527 E22.8172
G1 X103.438 Y90.776 E22.83584
G1 X83.228 Y110.986 E24.2105
G1 X83.525 Y111.235 E24.22914
G1 X103.735 Y91.025 E25.6038
G1 X104.031 Y91.274 E25.6224
G1 X83.821 Y111.484 E26.99706
G1 X84.118 Y111.733 E27.0157
G1 X104.328 Y91.523 E28.39036
G1 X104.624 Y91.771 E28.40893
G1 X84.414 Y111.981 E29.78359
G1 X84.711 Y112.23 E29.80223
G1 X104.921 Y92.02 E31.17689
G1 X105.217 Y92.269 E31.19549
G1 X85.007 Y112.479 E32.57015
G1 X85.304 Y112.728 E32.58879
G1 X105.514 Y92.518 E33.96345
G1 X105.81 Y92.767 E33.98205
G1 X85.6 Y112.977 E35.35671
G1 X85.897 Y113.225 E35.37532
G1 X106.107 Y93.016 E36.74995
G1 X106.403 Y93.264 E36.76852
G1 X86.193 Y113.474 E38.14318
G1 X86.49 Y113.723 E38.16182
G1 X106.7 Y93.513 E39.53648
G1 X106.996 Y93.762 E39.55508
G1 X86.786 Y113.972 E40.92974
G1 X87.083 Y114.221 E40.94838
G1 X107.293 Y94.011 E42.32304
G1 X107.589 Y94.26 E42.34164
G1 X87.379 Y114.47 E43.7163
G1 X87.676 Y114.718 E43.73491
G1 X107.886 Y94.508 E45.10957
G1 X108.182 Y94.757 E45.12817
G1 X87.973 Y114.967 E46.5028
G1 X88.269 Y115.216 E46.5214
G1 X108.479 Y95.006 E47.89606
G1 X108.776 Y95.255 E47.9147
G1 X88.566 Y115.465 E49.28936
G1 X88.862 Y115.714 E49.30796
G1 X109.072 Y95.504 E50.68262
G1 X109.369 Y95.753 E50.70126
G1 X89.159 Y115.962 E52.07589
G1 X89.455 Y116.211 E52.09449
G1 X109.665 Y96.001 E53.46915
G1 X109.962 Y96.25 E53.48779
G1 X89.752 Y116.46 E54.86245
G1 X90.048 Y116.709 E54.88105
G1 X110.258 Y96.499 E56.25571
G1 X110.555 Y96.748 E56.27435
G1 X90.345 Y116.958 E57.64901
G1 X90.641 Y117.207 E57.66761
G1 X110.851 Y96.997 E59.04227
G1 X111.148 Y97.245 E59.06088
G1 X90.938 Y117.455 E60.43554
G1 X91.234 Y117.704 E60.45414
G1 X111.444 Y97.494 E61.8288
G1 X111.741 Y97.743 E61.84744
G1 X91.531 Y117.953 E63.2221
G1 X91.827 Y118.202 E63.2407
G1 X112.037 Y97.992 E64.61536
G1 X112.334 Y98.241 E64.634
G1 X92.124 Y118.451 E66.00866
G1 X92.421 Y118.699 E66.02727
G1 X112.63 Y98.49 E67.40186
G1 X112.927 Y98.738 E67.42047
G1 X92.717 Y118.948 E68.79513
G1 X93.014 Y119.197 E68.81377
G1 X113.223 Y98.987 E70.1884
G1 X113.52 Y99.236 E70.20704
G1 X93.31 Y119.446 E71.5817
G1 X93.607 Y119.695 E71.60034
G1 X113.817 Y99.485 E72.975
G1 X114.113 Y99.734 E72.9936
G1 X93.903 Y119.944 E74.36826
G1 X94.2 Y120.192 E74.38687
G1 X114.41 Y99.982 E75.76153
G1 X114.7 Y100.09 E75.77641
;WIDTH:0.417723
G1 X113.336 Y101.578 E75.86537
;WIDTH:0.45
G1 X113.086 Y101.851 E75.88317
G1 X94.496 Y120.441 E77.14764
G1 X94.793 Y120.69 E77.16628
G1 X110.242 Y105.24 E78.21714
G1 X110.492 Y104.968 E78.23491
;WIDTH:0.417725
G1 X112.449 Y102.832 E78.36258
G1 E76.36258 F2400
G92 E0
G1 X109.605 Y106.222 F7800
G1 E2 F2400
G1 F1200
G1 X107.648 Y108.357 E2.12764
;WIDTH:0.45
G1 X107.398 Y108.63 E2.14544
G1 X95.089 Y120.939 E2.98268
G1 X95.386 Y121.188 E3.00132
G1 X104.554 Y112.019 E3.62495
G1 X104.804 Y111.747 E3.64272
;WIDTH:0.417725
G1 X106.761 Y109.611 E3.77039
G1 E1.77039 F2400
G92 E0
G1 X103.917 Y113 F7800
G1 E2 F2400
G1 F1200
G1 X101.96 Y115.136 E2.12767
;WIDTH:0.45
G1 X101.71 Y115.409 E2.14547
G1 X95.682 Y121.436 E2.55545
G1 X95.979 Y121.685 E2.57409
G1 X98.866 Y118.798 E2.77046
G1 X99.116 Y118.525 E2.78826
;WIDTH:0.417725
G1 X101.073 Y116.39 E2.9159
G1 E.9159 F2400
G92 E0
G1 X98.229 Y119.779 F7800
G1 E2 F2400
;WIDTH:0.420157
G1 F1200
G1 X96.253 Y121.935 E2.12977
;LAYER_CHANGE
;Z:0.95
;HEIGHT:0.3
G1 E.12977 F2400
G92 E0
G1 Z.95 F7800
G1 X97.383 Y85.222
G1 E2 F2400
;TYPE:Perimeter
;WIDTH:0.45
G1 F3600
G1 X106.196 Y92.616 E2.5533
G1 X115.008 Y100.011 E3.10659
G1 X96.327 Y122.274 E4.50439
G1 X78.702 Y107.485 E5.61098
G1 X97.345 Y85.268 E7.00591
G1 X97.336 Y84.678 F7800
G1 F3600
G1 X106.444 Y92.321 E7.57778
G1 X115.551 Y99.963 E8.14958
G1 X96.374 Y122.817 E9.58449
G1 X78.159 Y107.533 E10.72812
G1 X97.297 Y84.724 E12.16016
G1 X97.288 Y84.135 F7800
;TYPE:External perimeter
G1 F1800
G1 X106.691 Y92.025 E12.75053
G1 X116.095 Y99.916 E13.34097
G1 X96.422 Y123.361 E14.81299
G1 X77.616 Y107.58 E15.99376
G1 X97.25 Y84.181 E17.46288
G1 X97.591 Y84.39 F7800
G1 E15.46288 F2400
G92 E0
G1 X79.682 Y108.116 F7800
G1 E2 F2400
;TYPE:Solid infill
;WIDTH:0.404381
G1 F1200
G1 X78.968 Y107.462 E2.04106
;WIDTH:0.45
G1 X79.224 Y107.314 E2.05528
G1 X80.663 Y108.753 E2.15316
G1 X80.936 Y109.003 E2.17096
;WIDTH:0.417727
G1 X83.071 Y110.96 E2.2986
G1 E.2986 F2400
G92 E0
G1 X86.461 Y113.804 F7800
G1 E2 F2400
G1 F1200
G1 X84.325 Y111.847 E2.12767
;WIDTH:0.45
G1 X84.052 Y111.597 E2.14547
G1 X79.472 Y107.017 E2.457
G1 X79.721 Y106.72 E2.47564
G1 X87.442 Y114.441 E3.00081
G1 X87.714 Y114.691 E3.01858
;WIDTH:0.417729
G1 X89.85 Y116.648 E3.14625
G1 E1.14625 F2400
G92 E0
G1 X93.239 Y119.492 F7800
G1 E2 F2400
G1 F1200
G1 X91.104 Y117.535 E2.12764
;WIDTH:0.45
G1 X90.831 Y117.285 E2.14544
G1 X79.97 Y106.424 E2.88419
G1 X80.219 Y106.127 E2.90283
G1 X94.22 Y120.129 E3.85519
G1 X94.493 Y120.379 E3.87299
;WIDTH:0.417729
G1 X96.307 Y122.04 E3.98139
;WIDTH:0.45
G1 X96.388 Y121.751 E3.99583
G1 X80.468 Y105.831 E5.07869
G1 X80.717 Y105.534 E5.09733
G1 X96.637 Y121.455 E6.18022
G1 X96.886 Y121.158 E6.19886
G1 X80.965 Y105.238 E7.28175
G1 X81.214 Y104.941 E7.30039
G1 X97.135 Y120.862 E8.38332
G1 X97.383 Y120.565 E8.40193
G1 X81.463 Y104.645 E9.48479
G1 X81.712 Y104.348 E9.50343
G1 X97.632 Y120.269 E10.58632
G1 X97.881 Y119.972 E10.60496
G1 X81.961 Y104.052 E11.68782
G1 X82.209 Y103.755 E11.70643
G1 X98.13 Y119.676 E12.78936
G1 X98.379 Y119.379 E12.808
G1 X82.458 Y103.459 E13.89089
G1 X82.707 Y103.162 E13.90953
G1 X98.627 Y119.082 E14.99239
G1 X98.876 Y118.786 E15.01099
G1 X82.956 Y102.866 E16.09385
G1 X83.205 Y102.569 E16.11249
G1 X99.125 Y118.489 E17.19535
G1 X99.374 Y118.193 E17.21395
G1 X83.454 Y102.273 E18.29681
G1 X83.702 Y101.976 E18.31542
G1 X99.623 Y117.896 E19.39831
G1 X99.872 Y117.6 E19.41691
G1 X83.951 Y101.679 E20.49984
G1 X84.2 Y101.383 E20.51844
G1 X100.12 Y117.303 E21.6013
G1 X100.369 Y117.007 E21.6199
G1 X84.449 Y101.086 E22.70279
G1 X84.698 Y100.79 E22.72139
G1 X100.618 Y116.71 E23.80425
G1 X100.867 Y116.414 E23.82285
G1 X84.946 Y100.493 E24.90578
G1 X85.195 Y100.197 E24.92438
G1 X101.116 Y116.117 E26.00727
G1 X101.364 Y115.821 E26.02584
G1 X85.444 Y99.9 E27.10873
G1 X85.693 Y99.604 E27.12733
G1 X101.613 Y115.524 E28.21019
G1 X101.862 Y115.228 E28.22879
